Newaita/actions/22/format-indent-less.svg

<svg height="22" viewBox="0 0 22 22" width="22" xmlns="http://www.w3.org/2000/svg"><g fill="#424242"><path d="m19.554688 4.71875h-17.28125c-.25 0-.453126-.203125-.453126-.453125v-.910156c0-.25.203126-.453125.453126-.453125h17.28125c.253906 0 .457031.203125.457031.453125v.910156c0 .25-.203125.453125-.457031.453125zm0 0"/><path d="m13.1875 19.726562h-10.914062c-.25 0-.453126-.203124-.453126-.453124v-.910157c0-.25.203126-.453125.453126-.453125h10.914062c.253906 0 .457031.203125.457031.453125v.910157c0 .25-.203125.453124-.457031.453124zm0 0"/><path d="m13.1875 14.726562h-10.914062c-.25 0-.453126-.203124-.453126-.457031v-.910156c0-.25.203126-.453125.453126-.453125h10.914062c.253906 0 .457031.203125.457031.453125v.910156c0 .253907-.203125.457031-.457031.457031zm0 0"/><path d="m13.1875 9.722656h-10.914062c-.25 0-.453126-.203125-.453126-.453125v-.910156c0-.253906.203126-.457031.453126-.457031h10.914062c.253906 0 .457031.203125.457031.457031v.910156c0 .25-.203125.453125-.457031.453125zm0 0"/><path d="m20.011719 17v-6.367188l-4.546875 3.183594zm0 0"/></g></svg>

<?xml version="1.0" encoding="UTF-8"?>
<svg xmlns="http://www.w3.org/2000/svg" xmlns:xlink="http://www.w3.org/1999/xlink" width="22px" height="22px" viewBox="0 0 22 22" version="1.1">
<g id="surface1">
<path style=" stroke:none;fill-rule:nonzero;fill:rgb(25.882354%,25.882354%,25.882354%);fill-opacity:1;" d="M 19.554688 4.71875 L 2.273438 4.71875 C 2.023438 4.71875 1.820312 4.515625 1.820312 4.265625 L 1.820312 3.355469 C 1.820312 3.105469 2.023438 2.902344 2.273438 2.902344 L 19.554688 2.902344 C 19.808594 2.902344 20.011719 3.105469 20.011719 3.355469 L 20.011719 4.265625 C 20.011719 4.515625 19.808594 4.71875 19.554688 4.71875 Z M 19.554688 4.71875 "/>
<path style=" stroke:none;fill-rule:nonzero;fill:rgb(25.882354%,25.882354%,25.882354%);fill-opacity:1;" d="M 13.1875 19.726562 L 2.273438 19.726562 C 2.023438 19.726562 1.820312 19.523438 1.820312 19.273438 L 1.820312 18.363281 C 1.820312 18.113281 2.023438 17.910156 2.273438 17.910156 L 13.1875 17.910156 C 13.441406 17.910156 13.644531 18.113281 13.644531 18.363281 L 13.644531 19.273438 C 13.644531 19.523438 13.441406 19.726562 13.1875 19.726562 Z M 13.1875 19.726562 "/>
<path style=" stroke:none;fill-rule:nonzero;fill:rgb(25.882354%,25.882354%,25.882354%);fill-opacity:1;" d="M 13.1875 14.726562 L 2.273438 14.726562 C 2.023438 14.726562 1.820312 14.523438 1.820312 14.269531 L 1.820312 13.359375 C 1.820312 13.109375 2.023438 12.90625 2.273438 12.90625 L 13.1875 12.90625 C 13.441406 12.90625 13.644531 13.109375 13.644531 13.359375 L 13.644531 14.269531 C 13.644531 14.523438 13.441406 14.726562 13.1875 14.726562 Z M 13.1875 14.726562 "/>
<path style=" stroke:none;fill-rule:nonzero;fill:rgb(25.882354%,25.882354%,25.882354%);fill-opacity:1;" d="M 13.1875 9.722656 L 2.273438 9.722656 C 2.023438 9.722656 1.820312 9.519531 1.820312 9.269531 L 1.820312 8.359375 C 1.820312 8.105469 2.023438 7.902344 2.273438 7.902344 L 13.1875 7.902344 C 13.441406 7.902344 13.644531 8.105469 13.644531 8.359375 L 13.644531 9.269531 C 13.644531 9.519531 13.441406 9.722656 13.1875 9.722656 Z M 13.1875 9.722656 "/>
<path style=" stroke:none;fill-rule:nonzero;fill:rgb(25.882354%,25.882354%,25.882354%);fill-opacity:1;" d="M 20.011719 17 L 20.011719 10.632812 L 15.464844 13.816406 Z M 20.011719 17 "/>
</g>
</svg>
